outputs/icons/editor/attachment_round.svg

<svg xmlns="http://www.w3.org/2000/svg" width="1200" height="1200" fill="none"><g clip-path="url(#a)"><path fill="#000" d="M825 337.507v528.998c0 104.5-76.5 197.5-180.5 207.5-119.5 11.5-219.5-82-219.5-199V257.007c0-65.499 47-124.999 112-131.5 75-7.5 138 51 138 124.5v524.998c0 27.5-22.5 50-50 50s-50-22.5-50-50V337.507c0-20.5-17-37.5-37.5-37.5s-37.5 17-37.5 37.5v430.498c0 65.5 47 125 112 131.5 75 7.5 138-51 138-124.5V258.507c0-104.499-76.5-197.499-180.5-207.5-119-11.5-219.5 82-219.5 199v613.498c0 143.5 105 272 248 285.5 164.5 15 302-113 302-274V337.507c0-20.5-17-37.5-37.5-37.5s-37.5 17-37.5 37.5"/></g><defs><clipPath id="a"><path fill="#fff" d="M0 0h1200v1200H0z"/></clipPath></defs></svg>

<svg width="1200" height="1200" viewBox="0 0 1200 1200" fill="none" xmlns="http://www.w3.org/2000/svg"><g clip-path="url(#clip0_238_230)"><path d="M825 337.507V866.505C825 971.005 748.5 1064.005 644.5 1074.005C525 1085.505 425 992.005 425 875.005V257.007C425 191.508 472 132.008 537 125.507C612 118.007 675 176.507 675 250.007V775.005C675 802.505 652.5 825.005 625 825.005C597.5 825.005 575 802.505 575 775.005V337.507C575 317.007 558 300.007 537.5 300.007C517 300.007 500 317.007 500 337.507V768.005C500 833.505 547 893.005 612 899.505C687 907.005 750 848.505 750 775.005V258.507C750 154.008 673.5 61.008 569.5 51.007C450.5 39.507 350 133.007 350 250.007V863.505C350 1007.005 455 1135.505 598 1149.005C762.5 1164.005 900 1036.005 900 875.005V337.507C900 317.007 883 300.007 862.5 300.007C842 300.007 825 317.007 825 337.507Z" fill="black"/></g><defs><clipPath id="clip0_238_230"><path width="24" fill="white" d="M0 0H1200V1200H0V0z"/></clipPath></defs></svg>
